X: 20521
M: C|
L: 1/8
K: G
|:\
(BG)GG AGFE | D3C B,2z2 |\
c2c2 B2dB | A2A>A A2(D/E/F/G/) |
g4 fed^c | (ed)dd defg |\
f2f2 g2g2 | a3f ageg |\
ff f(e/f/) gg g(f/g/) | a>fa>f (ge)d^c |\
d2d>d d2z2 :|
|:\
d4 (d^c)de |\
f4 fefg | a3g fedc |\
(Bd)dd (Bd)dd | (Ac)cc (Ac)cc |\
e2c>c c2e2 |
d2B>B B2d2 |\
c2B2 A2G2 | d2d>d d2 (G/A/B/c/) |\
d4 =fedc | B2B>B BGBd |\
(gf)(gf) gfed |
(e^d)(ed) e=dcB |\
cege dcBA | B2B2 c2c2 |\
d3B dcAc | BB (BA/B/) cc c(B/c/) |\
defg dcBA | G2 [g2B2D2G,2] [g2B2D2G,2]z2 :|


